src/assets/images/icons/star-line.svg

<svg width="24" height="24" viewBox="0 0 24 24" fill="none" xmlns="http://www.w3.org/2000/svg">
<g clip-path="url(#clip0_58_16500)">
<path d="M12 18.26L4.94704 22.208L6.52204 14.28L0.587036 8.792L8.61404 7.84L12 0.5L15.386 7.84L23.413 8.792L17.478 14.28L19.053 22.208L12 18.26ZM12 15.968L16.247 18.345L15.298 13.572L18.871 10.267L14.038 9.694L12 5.275L9.96204 9.695L5.12904 10.267L8.70204 13.572L7.75304 18.345L12 15.968Z" fill="#181D27"/>
</g>
<defs>
<clipPath id="clip0_58_16500">
<rect width="24" height="24" fill="white"/>
</clipPath>
</defs>
</svg>

<svg xmlns="http://www.w3.org/2000/svg" width="24" height="24" fill="none" viewBox="0 0 24 24"><g clip-path="url(#a)"><path fill="#181d27" d="m12 18.26-7.053 3.948 1.575-7.928L.587 8.792l8.027-.952L12 .5l3.386 7.34 8.027.952-5.935 5.488 1.575 7.928zm0-2.292 4.247 2.377-.949-4.773 3.573-3.305-4.833-.573L12 5.275l-2.038 4.42-4.833.572 3.573 3.305-.949 4.773z"/></g><defs><clipPath id="a"><path fill="#fff" d="M0 0h24v24H0z"/></clipPath></defs></svg>
